X:1340
T:"Pat Tuohy's Reel"             1340
C:by Mr. Patsy Tuohy
N:A noted Uilleann piper who Chief O'Neill "persuaded" to leave a show in New York for the refined and salubrious life of a policeman in Chicago.  << !! >>
B:O'Neill's Music Of Ireland (The 1850) Lyon & Healy, Chicago, 1903 edition
Z:FROM O'NEILL'S TO NOTEWORTHY, FROM NOTEWORTHY TO ABC, MIDI AND .TXT BY VINCE
BRENNAN July 2003 (HTTP://WWW.SOSYOURMOM.COM)
I:abc2nwc
M:C|
L:1/8
K:G
B3/2(E/2 (3{F}EDE) BAFE|D2FD ADFD|B3/2(E/2 (3{F}EDE) BAFE|
[1 (3B^c^d eg fde=c:|[2 (3B^c^d eg fe e2||
e2(ge) Bege|^defg agfg|e2(ge) Bege|^defa ge e2|
e2(ge) Bege|^defg a2ga| (3bag (af) gefe|(3^c^de fa ge e2F,2|]
